X: 904
T: Gözleri Aşka Gülen
C: Esin Seçkin
O: Turkey
F: http://compmusic.upf.edu/node/140
N: nihavent--sarki--nimsofyan--gozleri_aska--gundogdu_duran
N: makam= nihavent
N: form= sarki
N: usul= nimsofyan = 2/4
M: 2/4
L: 1/16
K: C _B _e  
Q: 1/4=90
%%MIDI tuningsystem comma53
G2GG B2BB  | d8  | e2dc d2cB  | A8  | e2dc B2BA  | \
w:  ARANAĞME  |   |   |   |   | 
G2dd d2d2  | 
w:   | 
G2AB c2AB  | G8  | G2AB c2AB  | G2AB c2AB  | \
w:   |   |   |   | 
G2AB c2AB  | 
w:   | 
G8  | G2AB c2AB  | G2AB c2AB  | G2AB c2AB  | G8  | \
w:   |   |   |   |   | 
G2GG B2BB  | 
w:  Göz le ri  aş ka  gü  | 
d8  | d2ef e2dc  | d8  | G2GG B2BB  | d8  | d2ef e2dc  | 
w:  len   |  ta ze  sö ğüt  da lı  |  sın    |  Göz le ri  aş ka  gü  |  len   |  ta ze  sö ğüt  da lı  | 
d8  | g2fe d2cd  | e8  | b2ag f2ge  | d8  | g2fe d2cd  | 
w:  sın    |  Gel  ba na  her  ge ce   |  sen   |  gön lü me  dol ma lı  |  sın    |  Gel  ba na  her  ge ce   | 
e8  | b2ag f2ge  | d8  | c2cd e2z2  | B2Bc d2z2  | \
w:  sen   |  gön lü me  dol ma lı  |  sın    |  Tat lı  gü lüş   |  pek  ya ra şır   | 
e2dc B2AG  | 
w:  göz le rin_ öm re  be  | 
A8  | G2AB c2AB  | G2dd d2d2  | G2AB c2AB  | G8  | \
w:  del    |  Ah  ne  gü zel  ne  gü  |  zel  se ni  sev mek    |  Ah  ne  gü zel  ne  gü  |  zel    | 
c2cd e2z2  | 
w:  Tat lı  gü lüş   | 
B2Bc d2z2  | e2dc B2AG  | A8  | G2AB c2AB  | \
w:  pek  ya ra şır   |  göz le rin_ öm re  be  |  del    |  Ah  ne  gü zel  ne  gü  | 
G2dd d2d2  | 
w:  zel  se ni  sev mek    | 
G2AB c2AB  | G8  | g^fga gfg2  | g^fga gfg2  | 
w:  Ah  ne  gü zel  ne  gü  |  zel    |  SAZ Ağırlaşarak  |   | 
d2dd a2g^f  | g8  | b8  | b2ag a2gf  | g2fe f2ed  | \
w:  Sen siz_ e lem  ba na   |  yâr   |  ah    |  Doğ  be nim_ öm rü me   |  doğ  da  gü neş  gi bi    | 
d2ef e2dc  | 
w:  Aş kı mı  ta ze le   | 
d8  | d2ef e2dc  | d8  | b2ag a2gf  | g2fe f2ed  | \
w:  gel    |  SAZ A Tempo  |  [Başa]  |  Doğ  be nim_ öm rü me   |  doğ  da  gü neş  gi bi    | 
d2ef e2dc  | 
w:  Aş kı mı  ta ze le   | 
d8  | d2ef e2dc  | d8  | c2cd e2z2  | B2Bc d2z2  | \
w:  gel    |  SAZ A Tempo  |  [Başa]  |  Tat lı  gü lüş   |  pek  ya ra şır   | 
e2dc B2AG  | 
w:  göz le rin_ öm re  be  | 
A8  | G2AB c2AB  | G2dd d2d2  | G2AB c2AB  | G8  | \
w:  del    |  Ah  ne  gü zel  ne  gü  |  zel  se ni  sev mek    |  Ah  ne  gü zel  ne  gü  |  zel    | 
c2cd e2z2  | 
w:  Tat lı  gü lüş   | 
B2Bc d2z2  | e2dc B2AG  | A8  | G2AB c2AB  | \
w:  pek  ya ra şır   |  göz le rin_ öm re  be  |  del    |  Ah  ne  gü zel  ne  gü  | 
G2dd d2d2  | 
w:  zel  se ni  sev mek    | 
G2AB c2AB  | G8  | |


